Obsidian-SemiLight/actions/16s/document-save-all.svg

<svg viewBox="0 0 16 16" xmlns="http://www.w3.org/2000/svg"><path d="m5 2v2h-3v10h10v-2h2v-7.71875l-2.28125-2.28125h-.03125-.6875c-.00005-.00003-6 0-6 0zm1 1h5.28125l1.71875 1.71875v.28125 6h-1v-4.71875l-2.28125-2.28125h-.03125-.6875-3zm-3 2h1v3h5v-1-2h.28125l1.71875 1.71875v.28125 6h-1v-2h-6v2h-1zm2 0h2v2h-2zm0 7h4v1h-4z" fill="#4d4d4d"/></svg>

<svg xmlns="http://www.w3.org/2000/svg" viewBox="0 0 16 16">
  <defs id="defs3051">
    <style type="text/css" id="current-color-scheme">
      .ColorScheme-Text {
        color:#4d4d4d;
      }
      </style>
  </defs>
 <path style="fill:currentColor;fill-opacity:1;stroke:none" 
     d="M 5 2 L 5 4 L 2 4 L 2 14 L 12 14 L 12 12 L 14 12 L 14 4.28125 L 11.71875 2 L 11.6875 2 L 11 2 C 10.99995 1.99997 5 2 5 2 z M 6 3 L 11.28125 3 L 13 4.71875 L 13 5 L 13 11 L 12 11 L 12 6.28125 L 9.71875 4 L 9.6875 4 L 9 4 L 6 4 L 6 3 z M 3 5 L 4 5 L 4 8 L 9 8 L 9 7 L 9 5 L 9.28125 5 L 11 6.71875 L 11 7 L 11 13 L 10 13 L 10 11 L 4 11 L 4 13 L 3 13 L 3 5 z M 5 5 L 7 5 L 7 7 L 5 7 L 5 5 z M 5 12 L 9 12 L 9 13 L 5 13 L 5 12 z "
     class="ColorScheme-Text"
     />
</svg>
